assets/svg/jest.svg

<svg viewBox="0 0 24 24" fill="none" xmlns="http://www.w3.org/2000/svg">
    <g clip-path="url(#clip0_34144_597)">
        <mask id="path-1-inside-1_34144_597" fill="white">
            <path d="M22.251 11.82C22.2498 11.1316 22.0207 10.463 21.5996 9.91854C21.1785 9.37403 20.5889 8.98424 19.923 8.81L22.911 0H8.10397L11.1 8.838C10.4532 9.02653 9.88494 9.4196 9.48037 9.9583C9.07581 10.497 8.85673 11.1523 8.85597 11.826C8.85597 12.869 9.37597 13.793 10.169 14.362C9.84997 14.8117 9.48683 15.2285 9.08497 15.606C8.34577 16.31 7.48073 16.8688 6.53497 17.253C5.70097 16.69 5.33997 15.697 5.66597 14.807C6.37544 14.5866 6.98258 14.1196 7.37753 13.4904C7.77249 12.8612 7.92916 12.1113 7.81919 11.3766C7.70922 10.6419 7.33989 9.97083 6.77802 9.48482C6.21615 8.99881 5.49887 8.72999 4.75597 8.727C3.93068 8.72806 3.13949 9.05637 2.55592 9.63995C1.97235 10.2235 1.64403 11.0147 1.64297 11.84C1.64297 12.688 1.98997 13.466 2.54597 14.022C2.49797 14.119 2.44897 14.217 2.39997 14.321C1.93497 15.28 1.40697 16.364 1.20497 17.58C0.801974 20.012 1.46197 21.964 3.05397 23.069C3.9156 23.6767 4.9446 24.002 5.99897 24C7.82597 24 9.68097 23.083 11.474 22.193C12.753 21.561 14.073 20.901 15.372 20.581C15.852 20.463 16.352 20.394 16.88 20.317C17.95 20.164 19.055 20.005 20.048 19.427C20.6151 19.102 21.1042 18.657 21.4811 18.123C21.8581 17.5891 22.1136 16.9792 22.23 16.336C22.404 15.342 22.23 14.342 21.786 13.466C22.084 12.986 22.251 12.425 22.251 11.82ZM20.896 11.82C20.896 12.785 20.111 13.57 19.146 13.57C18.7826 13.569 18.4285 13.4551 18.1327 13.244C17.8368 13.0329 17.6139 12.7351 17.4948 12.3918C17.3756 12.0485 17.3661 11.6767 17.4675 11.3277C17.569 10.9787 17.7763 10.6699 18.061 10.444L18.068 10.437C18.124 10.395 18.186 10.353 18.248 10.312C18.248 10.312 18.256 10.312 18.256 10.305C18.284 10.291 18.311 10.27 18.339 10.255C18.346 10.255 18.353 10.249 18.36 10.249C18.388 10.235 18.423 10.221 18.457 10.207C18.492 10.193 18.527 10.18 18.555 10.166C18.562 10.166 18.568 10.159 18.575 10.159C18.603 10.152 18.631 10.138 18.659 10.131C18.666 10.131 18.679 10.124 18.687 10.124C18.721 10.117 18.749 10.11 18.784 10.104H18.791L18.895 10.082C18.902 10.082 18.915 10.082 18.923 10.075C18.951 10.075 18.978 10.068 19.006 10.068H19.041C19.076 10.068 19.111 10.061 19.152 10.061H19.242C19.27 10.061 19.292 10.061 19.319 10.068H19.333C19.388 10.075 19.444 10.082 19.5 10.096C19.8945 10.1805 20.2481 10.3976 20.5021 10.7111C20.7561 11.0245 20.8951 11.4165 20.896 11.82ZM10.043 1.39H20.973L18.464 8.79C18.36 8.81 18.256 8.845 18.152 8.88L15.512 3.495L12.864 8.845C12.76 8.811 12.648 8.79 12.537 8.769L10.043 1.39ZM15.011 11.215C14.8831 10.5736 14.5547 9.98943 14.073 9.547L15.511 6.643L16.963 9.61C16.533 10.04 16.22 10.59 16.095 11.215H15.011ZM11.53 10.117C11.564 10.11 11.592 10.103 11.627 10.097H11.647C11.676 10.089 11.703 10.089 11.731 10.082H11.759C11.787 10.082 11.808 10.075 11.835 10.075H12.106C12.134 10.075 12.155 10.082 12.176 10.082C12.19 10.082 12.196 10.082 12.211 10.089C12.238 10.096 12.259 10.096 12.287 10.103C12.294 10.103 12.301 10.103 12.315 10.11L12.412 10.13H12.419C12.447 10.138 12.475 10.145 12.502 10.159C12.509 10.159 12.516 10.166 12.53 10.166C12.551 10.173 12.579 10.18 12.6 10.193C12.607 10.193 12.614 10.2 12.62 10.2C12.648 10.214 12.676 10.221 12.704 10.235H12.711C12.7431 10.2471 12.7734 10.2636 12.801 10.284H12.808C12.836 10.298 12.864 10.318 12.892 10.332C12.899 10.332 12.899 10.339 12.905 10.339C12.933 10.353 12.955 10.374 12.982 10.388L12.989 10.395C13.072 10.457 13.149 10.527 13.225 10.596L13.232 10.603C13.5416 10.9292 13.7136 11.3622 13.712 11.812C13.6966 12.2662 13.5054 12.6966 13.1787 13.0124C12.852 13.3283 12.4154 13.5048 11.961 13.5048C11.5066 13.5048 11.0699 13.3283 10.7432 13.0124C10.4165 12.6966 10.2253 12.2662 10.21 11.812C10.2089 11.4226 10.3383 11.044 10.5776 10.7368C10.8168 10.4295 11.1522 10.2113 11.53 10.117ZM4.69197 10.068C5.65797 10.068 6.44297 10.854 6.44297 11.819C6.44297 12.784 5.65797 13.57 4.69297 13.57C3.72797 13.57 2.94097 12.785 2.94097 11.82C2.94097 10.855 3.72697 10.068 4.69197 10.068ZM20.855 16.093C20.7759 16.5376 20.5998 16.9592 20.3392 17.3279C20.0785 17.6966 19.7397 18.0032 19.347 18.226C18.589 18.664 17.658 18.803 16.678 18.942C16.1269 19.0126 15.5796 19.1097 15.038 19.233C13.593 19.588 12.204 20.283 10.856 20.95C9.13197 21.804 7.50597 22.61 5.99897 22.61C5.22619 22.6148 4.47189 22.3739 3.84497 21.922C2.31597 20.866 2.39197 18.886 2.57297 17.802C2.73997 16.787 3.20497 15.836 3.64997 14.925C3.67797 14.87 3.69897 14.821 3.72697 14.765C3.87897 14.821 4.03897 14.863 4.20597 14.891C3.94197 16.364 4.69197 17.885 6.15197 18.636L6.41597 18.775L6.69997 18.671C7.91597 18.24 9.04197 17.538 10.036 16.6C10.5849 16.0882 11.07 15.512 11.481 14.884C11.641 14.911 11.801 14.918 11.961 14.918C12.6489 14.9164 13.3169 14.6873 13.861 14.2664C14.4051 13.8455 14.7946 13.2564 14.969 12.591H16.136C16.3092 13.2574 16.6987 13.8475 17.2435 14.2687C17.7882 14.6898 18.4574 14.9182 19.146 14.918C19.722 14.918 20.256 14.758 20.716 14.488C20.896 15.008 20.952 15.551 20.855 16.093Z"/>
        </mask>
        <path d="M22.251 11.82C22.2498 11.1316 22.0207 10.463 21.5996 9.91854C21.1785 9.37403 20.5889 8.98424 19.923 8.81L22.911 0H8.10397L11.1 8.838C10.4532 9.02653 9.88494 9.4196 9.48037 9.9583C9.07581 10.497 8.85673 11.1523 8.85597 11.826C8.85597 12.869 9.37597 13.793 10.169 14.362C9.84997 14.8117 9.48683 15.2285 9.08497 15.606C8.34577 16.31 7.48073 16.8688 6.53497 17.253C5.70097 16.69 5.33997 15.697 5.66597 14.807C6.37544 14.5866 6.98258 14.1196 7.37753 13.4904C7.77249 12.8612 7.92916 12.1113 7.81919 11.3766C7.70922 10.6419 7.33989 9.97083 6.77802 9.48482C6.21615 8.99881 5.49887 8.72999 4.75597 8.727C3.93068 8.72806 3.13949 9.05637 2.55592 9.63995C1.97235 10.2235 1.64403 11.0147 1.64297 11.84C1.64297 12.688 1.98997 13.466 2.54597 14.022C2.49797 14.119 2.44897 14.217 2.39997 14.321C1.93497 15.28 1.40697 16.364 1.20497 17.58C0.801974 20.012 1.46197 21.964 3.05397 23.069C3.9156 23.6767 4.9446 24.002 5.99897 24C7.82597 24 9.68097 23.083 11.474 22.193C12.753 21.561 14.073 20.901 15.372 20.581C15.852 20.463 16.352 20.394 16.88 20.317C17.95 20.164 19.055 20.005 20.048 19.427C20.6151 19.102 21.1042 18.657 21.4811 18.123C21.8581 17.5891 22.1136 16.9792 22.23 16.336C22.404 15.342 22.23 14.342 21.786 13.466C22.084 12.986 22.251 12.425 22.251 11.82ZM20.896 11.82C20.896 12.785 20.111 13.57 19.146 13.57C18.7826 13.569 18.4285 13.4551 18.1327 13.244C17.8368 13.0329 17.6139 12.7351 17.4948 12.3918C17.3756 12.0485 17.3661 11.6767 17.4675 11.3277C17.569 10.9787 17.7763 10.6699 18.061 10.444L18.068 10.437C18.124 10.395 18.186 10.353 18.248 10.312C18.248 10.312 18.256 10.312 18.256 10.305C18.284 10.291 18.311 10.27 18.339 10.255C18.346 10.255 18.353 10.249 18.36 10.249C18.388 10.235 18.423 10.221 18.457 10.207C18.492 10.193 18.527 10.18 18.555 10.166C18.562 10.166 18.568 10.159 18.575 10.159C18.603 10.152 18.631 10.138 18.659 10.131C18.666 10.131 18.679 10.124 18.687 10.124C18.721 10.117 18.749 10.11 18.784 10.104H18.791L18.895 10.082C18.902 10.082 18.915 10.082 18.923 10.075C18.951 10.075 18.978 10.068 19.006 10.068H19.041C19.076 10.068 19.111 10.061 19.152 10.061H19.242C19.27 10.061 19.292 10.061 19.319 10.068H19.333C19.388 10.075 19.444 10.082 19.5 10.096C19.8945 10.1805 20.2481 10.3976 20.5021 10.7111C20.7561 11.0245 20.8951 11.4165 20.896 11.82ZM10.043 1.39H20.973L18.464 8.79C18.36 8.81 18.256 8.845 18.152 8.88L15.512 3.495L12.864 8.845C12.76 8.811 12.648 8.79 12.537 8.769L10.043 1.39ZM15.011 11.215C14.8831 10.5736 14.5547 9.98943 14.073 9.547L15.511 6.643L16.963 9.61C16.533 10.04 16.22 10.59 16.095 11.215H15.011ZM11.53 10.117C11.564 10.11 11.592 10.103 11.627 10.097H11.647C11.676 10.089 11.703 10.089 11.731 10.082H11.759C11.787 10.082 11.808 10.075 11.835 10.075H12.106C12.134 10.075 12.155 10.082 12.176 10.082C12.19 10.082 12.196 10.082 12.211 10.089C12.238 10.096 12.259 10.096 12.287 10.103C12.294 10.103 12.301 10.103 12.315 10.11L12.412 10.13H12.419C12.447 10.138 12.475 10.145 12.502 10.159C12.509 10.159 12.516 10.166 12.53 10.166C12.551 10.173 12.579 10.18 12.6 10.193C12.607 10.193 12.614 10.2 12.62 10.2C12.648 10.214 12.676 10.221 12.704 10.235H12.711C12.7431 10.2471 12.7734 10.2636 12.801 10.284H12.808C12.836 10.298 12.864 10.318 12.892 10.332C12.899 10.332 12.899 10.339 12.905 10.339C12.933 10.353 12.955 10.374 12.982 10.388L12.989 10.395C13.072 10.457 13.149 10.527 13.225 10.596L13.232 10.603C13.5416 10.9292 13.7136 11.3622 13.712 11.812C13.6966 12.2662 13.5054 12.6966 13.1787 13.0124C12.852 13.3283 12.4154 13.5048 11.961 13.5048C11.5066 13.5048 11.0699 13.3283 10.7432 13.0124C10.4165 12.6966 10.2253 12.2662 10.21 11.812C10.2089 11.4226 10.3383 11.044 10.5776 10.7368C10.8168 10.4295 11.1522 10.2113 11.53 10.117ZM4.69197 10.068C5.65797 10.068 6.44297 10.854 6.44297 11.819C6.44297 12.784 5.65797 13.57 4.69297 13.57C3.72797 13.57 2.94097 12.785 2.94097 11.82C2.94097 10.855 3.72697 10.068 4.69197 10.068ZM20.855 16.093C20.7759 16.5376 20.5998 16.9592 20.3392 17.3279C20.0785 17.6966 19.7397 18.0032 19.347 18.226C18.589 18.664 17.658 18.803 16.678 18.942C16.1269 19.0126 15.5796 19.1097 15.038 19.233C13.593 19.588 12.204 20.283 10.856 20.95C9.13197 21.804 7.50597 22.61 5.99897 22.61C5.22619 22.6148 4.47189 22.3739 3.84497 21.922C2.31597 20.866 2.39197 18.886 2.57297 17.802C2.73997 16.787 3.20497 15.836 3.64997 14.925C3.67797 14.87 3.69897 14.821 3.72697 14.765C3.87897 14.821 4.03897 14.863 4.20597 14.891C3.94197 16.364 4.69197 17.885 6.15197 18.636L6.41597 18.775L6.69997 18.671C7.91597 18.24 9.04197 17.538 10.036 16.6C10.5849 16.0882 11.07 15.512 11.481 14.884C11.641 14.911 11.801 14.918 11.961 14.918C12.6489 14.9164 13.3169 14.6873 13.861 14.2664C14.4051 13.8455 14.7946 13.2564 14.969 12.591H16.136C16.3092 13.2574 16.6987 13.8475 17.2435 14.2687C17.7882 14.6898 18.4574 14.9182 19.146 14.918C19.722 14.918 20.256 14.758 20.716 14.488C20.896 15.008 20.952 15.551 20.855 16.093Z"
              stroke="currentColor" mask="url(#path-1-inside-1_34144_597)"/>
    </g>
    <defs>
        <clipPath id="clip0_34144_597">
            <rect width="24" height="24" fill="white"/>
        </clipPath>
    </defs>
</svg>

<svg viewBox="0 0 24 24" xmlns="http://www.w3.org/2000/svg">
    <path fill="currentColor" d="M22.251 11.82a3.117 3.117 0 0 0-2.328-3.01L22.911 0H8.104L11.1 8.838a3.116 3.116 0 0 0-2.244 2.988c0 1.043.52 1.967 1.313 2.536a8.279 8.279 0 0 1-1.084 1.244 8.14 8.14 0 0 1-2.55 1.647c-.834-.563-1.195-1.556-.869-2.446a3.11 3.11 0 0 0-.91-6.08 3.117 3.117 0 0 0-3.113 3.113c0 .848.347 1.626.903 2.182-.048.097-.097.195-.146.299-.465.959-.993 2.043-1.195 3.259-.403 2.432.257 4.384 1.849 5.489A5.093 5.093 0 0 0 5.999 24c1.827 0 3.682-.917 5.475-1.807 1.279-.632 2.599-1.292 3.898-1.612.48-.118.98-.187 1.508-.264 1.07-.153 2.175-.312 3.168-.89a4.482 4.482 0 0 0 2.182-3.091c.174-.994 0-1.994-.444-2.87.298-.48.465-1.042.465-1.647zm-1.355 0c0 .965-.785 1.75-1.75 1.75a1.753 1.753 0 0 1-1.085-3.126l.007-.007c.056-.042.118-.084.18-.125 0 0 .008 0 .008-.007.028-.014.055-.035.083-.05.007 0 .014-.006.021-.006.028-.014.063-.028.097-.042.035-.014.07-.027.098-.041.007 0 .013-.007.02-.007.028-.007.056-.021.084-.028.007 0 .02-.007.028-.007.034-.007.062-.014.097-.02h.007l.104-.022c.007 0 .02 0 .028-.007.028 0 .055-.007.083-.007h.035c.035 0 .07-.007.111-.007h.09c.028 0 .05 0 .077.007h.014c.055.007.111.014.167.028a1.766 1.766 0 0 1 1.396 1.723zM10.043 1.39h10.93l-2.509 7.4c-.104.02-.208.055-.312.09l-2.64-5.385-2.648 5.35c-.104-.034-.216-.055-.327-.076l-2.494-7.38zm4.968 9.825a3.083 3.083 0 0 0-.938-1.668l1.438-2.904 1.452 2.967c-.43.43-.743.98-.868 1.605H15.01zm-3.481-1.098c.034-.007.062-.014.097-.02h.02c.029-.008.056-.008.084-.015h.028c.028 0 .049-.007.076-.007h.271c.028 0 .049.007.07.007.014 0 .02 0 .035.007.027.007.048.007.076.014.007 0 .014 0 .028.007l.097.02h.007c.028.008.056.015.083.029.007 0 .014.007.028.007.021.007.049.014.07.027.007 0 .014.007.02.007.028.014.056.021.084.035h.007a.374.374 0 0 1 .09.049h.007c.028.014.056.034.084.048.007 0 .007.007.013.007.028.014.05.035.077.049l.007.007c.083.062.16.132.236.201l.007.007a1.747 1.747 0 0 1 .48 1.209 1.752 1.752 0 0 1-3.502 0 1.742 1.742 0 0 1 1.32-1.695zm-6.838-.049c.966 0 1.751.786 1.751 1.751s-.785 1.751-1.75 1.751-1.752-.785-1.752-1.75.786-1.752 1.751-1.752zm16.163 6.025a3.07 3.07 0 0 1-1.508 2.133c-.758.438-1.689.577-2.669.716a17.29 17.29 0 0 0-1.64.291c-1.445.355-2.834 1.05-4.182 1.717-1.724.854-3.35 1.66-4.857 1.66a3.645 3.645 0 0 1-2.154-.688c-1.529-1.056-1.453-3.036-1.272-4.12.167-1.015.632-1.966 1.077-2.877.028-.055.049-.104.077-.16.152.056.312.098.479.126-.264 1.473.486 2.994 1.946 3.745l.264.139.284-.104c1.216-.431 2.342-1.133 3.336-2.071a9.334 9.334 0 0 0 1.445-1.716c.16.027.32.034.48.034a3.117 3.117 0 0 0 3.008-2.327h1.167a3.109 3.109 0 0 0 3.01 2.327c.576 0 1.11-.16 1.57-.43.18.52.236 1.063.139 1.605z"/>
</svg>
